X: 9946
T: Dever The Dancer
R: slip jig
M: 9/8
K: Eminor
|:BEE BEE G2A|BEE BEE FGA|BEE BEE G2A|Bcd ABG FED:|
ded dAF G2A|ded def gfe|ded dAF G2A|Bcd BAG FED|
ded dAF G2A|ded def gfe|afd ece d2A|Bcd ABG FED||

